X:1
T:Phinehas, 10.10.10.10 D
T:Phinehas, 10.10.10.10 D
T:John Robson Sweney, 1891
T:Public Domain Courtesy of the Cyber Hymnal™
C:John Robson Sweney, 1891
Z:Public Domain
Z:Courtesy of the Cyber Hymnal™
%%score ( 1 2 ) ( 3 4 )
L:1/8
Q:1/4=100
M:9/8
K:C
V:1 treble 
V:2 treble 
V:3 bass 
V:4 bass 
V:1
 [CE][DF][^D^F] | [EG]3 [Ec]2 [Ec] [Ec][EB][EA] | [FB]6 [FG][FA][FG] | %3
 [FG]3 [Fd]2 [Fd] [Fd][Ec][DB] | [Ec]6 [EG][FA][EG] | [Ge]3 [Ec]2 [EG] [EG][Ec][GB] | %6
 [FA]6 [FA][FB][Fc] | [Ec]3 [EG]2 [Ec] [DB][Ec][Fd] | [Ec]6 GGG | d4 [Fd][DB] [DB][Ec][Fd] | %10
 [Ec]6 EEE | A4 [EA][EA] [EA][^FA][FB][Fc] | B6 [EG][FA][EG] | [Ge]3 [Ec]2 [EG] [EG][Ec][GB] | %14
 [FA]6 [FA][FB][Fc] | [Ec]3 [EG]2 [Ec] [DB][Ec][Fd] | [Ec]6 |] %17
V:2
 x3 | x9 | x9 | x9 | x9 | x9 | x9 | x9 | x9 | (FFF F) x5 | x9 | E E E x7 | G3 F3 x3 | x9 | x9 | %15
 x9 | x6 |] %17
V:3
 [C,G,][C,G,][C,G,] | [C,C]3 [C,G,]2 [C,G,] [C,G,][C,G,][C,C] | [G,D]6 [G,B,][G,C][G,B,] | %3
 [G,B,]3 [G,B,]2 [G,B,] [G,,B,][G,,G,][G,,G,] | [C,G,]6 [C,C][C,C][C,C] | %5
 [C,C]3 [C,G,]2 [C,C] [C,C][C,G,][E,E] | [F,C]6 [F,C][F,B,][F,A,] | %7
 G,3 [G,C]2 G, [G,,G,][G,,G,][G,,G,] | [C,G,]6 z3 | %9
 ([G,B,][G,B,][G,B,] [G,B,])[G,B,][G,,G,] [G,,G,][G,,G,][G,,G,] | [C,G,]6 z3 | %11
 ([A,,C][A,,C][A,,C] [A,,C])[A,,C][A,,C] [D,E][D,C][D,D] x | [G,D]6 [C,C][C,C][C,C] | %13
 [C,C]3 [C,G,]2 [C,C] [C,C][C,G,][E,E] | [F,C]6 [F,C][F,B,][F,A,] | %15
 G,3 [G,C]2 G, [G,,G,][G,,G,][G,,G,] | [C,G,]6 |] %17
V:4
 x3 | x9 | x9 | x9 | x9 | x9 | x9 | G,3 G, x5 | x9 | x9 | x9 | x10 | x9 | x9 | x9 | G,3 G, x5 | %16
 x6 |] %17

